X: 1
T: Pacotile
R: bour\'ee
S: NEFFA 2016 French Jam handout p.17 #3 from Mark Vidor
S: NEFFA 2019 French Jam handout p.5 #3
Z: 2016 John Chambers <jc:trillian.mit.edu>
M: 2/4
L: 1/8
K: G
|:\
"G"B2 d2 | "Am"c>B AG | "C"EG AB | "D"B>A GA |\
"G"B2 d2 | "Am"c>B AG | "C"EG "D"AF | "G"G4 :|
|:\
"Em"E3 G | "D"F3 A | "G"B3 G | "Bm"d>c BG |\
"Em"E3 G | "D"F2 GA | "G"B2 BG |1 "D"AB/A/ GF :|2 "D"A4 |]
